style-guide/assets/xd-icons-footnote.svg

<?xml version="1.0" encoding="UTF-8"?>
<svg width="24px" height="24px" viewBox="0 0 24 24" version="1.1" xmlns="http://www.w3.org/2000/svg" xmlns:xlink="http://www.w3.org/1999/xlink">
    <!-- Generator: Sketch 51.3 (57544) - http://www.bohemiancoding.com/sketch -->
    <title>footnote</title>
    <desc>Created with Sketch.</desc>
    <defs>
        <path d="M22,1 L19,1 C18.448,1 18,1.447 18,2 C18,2.553 18.448,3 19,3 L21,3 L21,13 L19,13 C18.448,13 18,13.447 18,14 C18,14.553 18.448,15 19,15 L22,15 C22.552,15 23,14.553 23,14 L23,2 C23,1.447 22.552,1 22,1 M9,19 C7.897,19 7,19.896 7,21 C7,22.104 7.897,23 9,23 C10.103,23 11,22.104 11,21 C11,19.896 10.103,19 9,19 M3,19 C1.897,19 1,19.896 1,21 C1,22.104 1.897,23 3,23 C4.103,23 5,22.104 5,21 C5,19.896 4.103,19 3,19 M12,13 L10,13 L10,3 L12,3 C12.552,3 13,2.553 13,2 C13,1.447 12.552,1 12,1 L9,1 C8.448,1 8,1.447 8,2 L8,14 C8,14.553 8.448,15 9,15 L12,15 C12.552,15 13,14.553 13,14 C13,13.447 12.552,13 12,13 M16.3828,4.0762 C16.0078,3.9202 15.5788,4.0062 15.2928,4.2932 L13.2928,6.2932 C12.9028,6.6832 12.9028,7.3162 13.2928,7.7072 C13.6838,8.0972 14.3168,8.0972 14.7068,7.7072 L14.9998,7.4142 L14.9998,11.0002 C14.9998,11.5532 15.4478,12.0002 15.9998,12.0002 C16.5518,12.0002 16.9998,11.5532 16.9998,11.0002 L16.9998,5.0002 C16.9998,4.5962 16.7568,4.2302 16.3828,4.0762 M15,19 C13.897,19 13,19.896 13,21 C13,22.104 13.897,23 15,23 C16.103,23 17,22.104 17,21 C17,19.896 16.103,19 15,19" id="path-1"></path>
    </defs>
    <g id="footnote" stroke="none" stroke-width="1" fill="none" fill-rule="evenodd">
        <mask id="mask-2" fill="white">
            <use xlink:href="#path-1"></use>
        </mask>
        <use id="icons/24px/Footnote" fill="#000000" xlink:href="#path-1"></use>
    </g>
</svg>

<svg viewBox="0 0 24 24" xmlns="http://www.w3.org/2000/svg" xmlns:xlink="http://www.w3.org/1999/xlink">
  <path d="M22 1h-3a1 1 0 1 0 0 2h2v10h-2a1 1 0 1 0 0 2h3a1 1 0 0 0 1-1V2a1 1 0 0 0-1-1M9 19c-1.103 0-2 .896-2 2s.897 2 2 2 2-.896 2-2-.897-2-2-2m-6 0c-1.103 0-2 .896-2 2s.897 2 2 2 2-.896 2-2-.897-2-2-2m9-6h-2V3h2a1 1 0 1 0 0-2H9a1 1 0 0 0-1 1v12a1 1 0 0 0 1 1h3a1 1 0 1 0 0-2m4.383-8.924a.996.996 0 0 0-1.09.217l-2 2a1 1 0 0 0 1.414 1.414L15 7.414V11a1 1 0 1 0 2 0V5a.999.999 0 0 0-.617-.924M15 19c-1.103 0-2 .896-2 2s.897 2 2 2 2-.896 2-2-.897-2-2-2"/>
</svg>
